src/assets/icon/mid.svg

<svg width="100" height="100" viewBox="0 0 100 100" fill="none" xmlns="http://www.w3.org/2000/svg">
<g id="mid">
<g id="Mid" clip-path="url(#clip0_2250_88095)">
<path id="Union" fill-rule="evenodd" clip-rule="evenodd" d="M45.1 0H20.6L15 5.6V29.4L23.4 21V8.4H36.7L45.1 0ZM54.9 70H79.4L85 64.4V40.6L76.6 49V61.6H63.3L54.9 70ZM85 15.4V0H70.3L15 54.6V70H29.7L85 15.4Z" fill="url(#paint0_linear_2250_88095)"/>
</g>
<path id="MID" d="M26.549 100V83.2H29.117L36.461 95.464H35.117L42.341 83.2H44.909L44.933 100H41.981L41.957 87.832H42.581L36.437 98.08H35.045L28.805 87.832H29.525V100H26.549ZM49.4708 100V83.2H52.5908V100H49.4708ZM57.1349 100V83.2H64.4789C66.3029 83.2 67.9029 83.552 69.2789 84.256C70.6549 84.96 71.7269 85.936 72.4949 87.184C73.2629 88.432 73.6469 89.904 73.6469 91.6C73.6469 93.28 73.2629 94.752 72.4949 96.016C71.7269 97.264 70.6549 98.24 69.2789 98.944C67.9029 99.648 66.3029 100 64.4789 100H57.1349ZM60.2549 97.36H64.3349C65.5989 97.36 66.6869 97.12 67.5989 96.64C68.5269 96.16 69.2389 95.488 69.7349 94.624C70.2469 93.76 70.5029 92.752 70.5029 91.6C70.5029 90.432 70.2469 89.424 69.7349 88.576C69.2389 87.712 68.5269 87.04 67.5989 86.56C66.6869 86.08 65.5989 85.84 64.3349 85.84H60.2549V97.36Z" fill="url(#paint1_linear_2250_88095)"/>
</g>
<defs>
<linearGradient id="paint0_linear_2250_88095" x1="11.7276" y1="35.0003" x2="86.2805" y2="35.0003" gradientUnits="userSpaceOnUse">
<stop stop-color="#AB750F"/>
<stop offset="0.516" stop-color="#D8A956"/>
<stop offset="1" stop-color="#AB750F"/>
</linearGradient>
<linearGradient id="paint1_linear_2250_88095" x1="21.6159" y1="91.5001" x2="75.9329" y2="91.5001" gradientUnits="userSpaceOnUse">
<stop stop-color="#AB750F"/>
<stop offset="0.516" stop-color="#D8A956"/>
<stop offset="1" stop-color="#AB750F"/>
</linearGradient>
<clipPath id="clip0_2250_88095">
<rect width="70" height="70" fill="white" transform="translate(15)"/>
</clipPath>
</defs>
</svg>

<svg xmlns="http://www.w3.org/2000/svg" width="100" height="100" fill="none" xmlns:v="https://vecta.io/nano"><g clip-path="url(#C)"><path fill-rule="evenodd" d="M45.1 0H20.6L15 5.6v23.8l8.4-8.4V8.4h13.3L45.1 0zm9.8 70h24.5l5.6-5.6V40.6L76.6 49v12.6H63.3L54.9 70zM85 15.4V0H70.3L15 54.6V70h14.7L85 15.4z" fill="url(#A)"/></g><path d="M26.549 100V83.2h2.568l7.344 12.264h-1.344L42.341 83.2h2.568l.024 16.8h-2.952l-.024-12.168h.624L36.437 98.08h-1.392l-6.24-10.248h.72V100h-2.976zm22.922 0V83.2h3.12V100h-3.12zm7.664 0V83.2h7.344c1.824 0 3.424.352 4.8 1.056s2.448 1.68 3.216 2.928 1.152 2.72 1.152 4.416c0 1.68-.384 3.152-1.152 4.416-.768 1.248-1.84 2.224-3.216 2.928S66.303 100 64.479 100h-7.344zm3.12-2.64h4.08c1.264 0 2.352-.24 3.264-.72.928-.48 1.64-1.152 2.136-2.016.512-.864.768-1.872.768-3.024 0-1.168-.256-2.176-.768-3.024-.496-.864-1.208-1.536-2.136-2.016-.912-.48-2-.72-3.264-.72h-4.08v11.52z" fill="url(#B)"/><defs><linearGradient id="A" x1="11.728" y1="35" x2="86.281" y2="35" gradientUnits="userSpaceOnUse"><stop stop-color="#ab750f"/><stop offset=".516" stop-color="#d8a956"/><stop offset="1" stop-color="#ab750f"/></linearGradient><linearGradient id="B" x1="21.616" y1="91.5" x2="75.933" y2="91.5" gradientUnits="userSpaceOnUse"><stop stop-color="#ab750f"/><stop offset=".516" stop-color="#d8a956"/><stop offset="1" stop-color="#ab750f"/></linearGradient><clipPath id="C"><path fill="#fff" transform="translate(15)" d="M0 0h70v70H0z"/></clipPath></defs></svg>
